images_elementary_svg/cmd/sc_dataincolumns.svg

<svg viewBox="0 0 16 16" xmlns="http://www.w3.org/2000/svg" xmlns:xlink="http://www.w3.org/1999/xlink"><linearGradient id="a" gradientTransform="matrix(.59435835 0 0 .59991399 -19.26472 -.032551)" gradientUnits="userSpaceOnUse" x1="25.132275" x2="25.132275" y1="15.499894" y2="48.395687"><stop offset="0" stop-color="#fafafa"/><stop offset="1" stop-color="#e2e1de"/></linearGradient><linearGradient id="b" gradientTransform="matrix(.98703551 0 0 .88413271 .093223 -1.350946)" gradientUnits="userSpaceOnUse" x1="7" x2="7" y1="2" y2="9"><stop offset="0" stop-color="#fff"/><stop offset=".5" stop-color="#fff" stop-opacity=".235294"/><stop offset=".95056331" stop-color="#fff" stop-opacity=".156863"/><stop offset="1" stop-color="#fff" stop-opacity=".392157"/></linearGradient><linearGradient id="c" gradientTransform="matrix(.94102962 0 0 1.0270126 .46127 -2.560381)" gradientUnits="userSpaceOnUse" x1="7" x2="7" y1="-4" y2="17"><stop offset="0" stop-color="#cdf87e"/><stop offset=".26238" stop-color="#a2e34f"/><stop offset=".66093999" stop-color="#68b723"/><stop offset="1" stop-color="#1d7e0d"/></linearGradient><g transform="translate(0 2)"><rect fill="url(#a)" height="10" rx=".423727" ry=".491478" stroke-width="1.33333" width="14" x="1" y="3"/><path d="m.49804688.00195313c-.27630146-.0003844-.50038443.2236985-.50000001.49999999l.00195313 14.99804688c-.00038442.276301.22369855.500384.5.5h15c.276301.000384.500384-.223699.5-.5l-.001953-10.5h.001953v-1h-.001953v-3.49804688c.000384-.27630149-.223699-.50038439-.5-.49999999zm.49804687.99804687h14.00390625v3h-4.001953v-2.9980469h-1.0000001v2.9980469h-4v-2.9980469h-1v2.9980469h-4.00195315zm0 4h4.00390625v2h-4v1h4v3h-4v1h4v3h1v-3h4v3h1v-3h4v-1h-4v-3h4v3l.001953 4.001953h-14.00390612zm5.00390625 0h4v2h-4zm5 0h4v2h-4zm-5 3h4v3h-4z" fill="#030303" opacity=".32" transform="translate(0 -2)"/></g><path d="m1 6.9999995h14v5.0000005h-14z" fill="#fcaf3e"/><g fill="#ce5c00"><path d="m1 6.9999995c-.554 0-1 .446-1 1v3.0000005c0 .554.446 1 1 1h14c.554 0 1-.446 1-1v-3.0000005c0-.554-.446-1-1-1zm0 1h14v3.0000005h-14z"/><path d="m5 8h1v3h-1z"/><path d="m10 8h1v3h-1z"/></g><path d="m.5.00000048a.49930579.49930579 0 0 0 -.5.5v3.50000002h.99804688v-3.00195312h14.00390612v3.00195312h.998047v-3.50000002a.49930579.49930579 0 0 0 -.5-.5zm4.5 1.00000002v2h-4v1h4 1 3.9999995 1.0000005 4v-1h-4v-2h-1.0000005v2h-3.9999995v-2z" fill="#126400" opacity=".4"/><path d="m.50129612.52065718h15.01644788v3.08103832h-15.01644788z" fill="url(#c)" stroke-width=".983082"/><path d="m.50129512.52065718.000001 3.08103832.50944998-.00781-.010746-2.593885h13.9999999v2.6016971h.517738l.000006-3.08103832z" fill="url(#b)"/><g fill="#126400"><path d="m5 .494179h1v3.074325h-1z" opacity=".4"/><path d="m10 .494179h1v3.102963h-1z" opacity=".4"/></g></svg>

<?xml version="1.0" encoding="UTF-8" standalone="no"?>
<svg
   xmlns:dc="http://purl.org/dc/elements/1.1/"
   xmlns:cc="http://creativecommons.org/ns#"
   xmlns:rdf="http://www.w3.org/1999/02/22-rdf-syntax-ns#"
   xmlns:svg="http://www.w3.org/2000/svg"
   xmlns="http://www.w3.org/2000/svg"
   xmlns:xlink="http://www.w3.org/1999/xlink"
   xmlns:sodipodi="http://sodipodi.sourceforge.net/DTD/sodipodi-0.dtd"
   xmlns:inkscape="http://www.inkscape.org/namespaces/inkscape"
   viewBox="0 0 16 16"
   version="1.1"
   id="svg6"
   sodipodi:docname="sc_dataincolumns.svg"
   inkscape:version="0.92.3 (unknown)"
   inkscape:export-filename="/home/rizmut/Dokumen/Rizmut/Github/libreoffice-style-elementary/images_elementary/cmd/sc_dataincolumns.png"
   inkscape:export-xdpi="96"
   inkscape:export-ydpi="96">
  <metadata
     id="metadata12">
    <rdf:RDF>
      <cc:Work
         rdf:about="">
        <dc:format>image/svg+xml</dc:format>
        <dc:type
           rdf:resource="http://purl.org/dc/dcmitype/StillImage" />
        <dc:title></dc:title>
      </cc:Work>
    </rdf:RDF>
  </metadata>
  <defs
     id="defs10">
    <linearGradient
       gradientTransform="matrix(1.3831741,0,0,1.414422,-36.243337,-3.8728445)"
       id="e"
       gradientUnits="userSpaceOnUse"
       x1="8.2950277"
       x2="8.2950277"
       y1="-4.283906"
       y2="16.849756">
      <stop
         offset="0"
         stop-color="#cdf87e"
         id="stop22" />
      <stop
         offset=".26238"
         stop-color="#a2e34f"
         id="stop24" />
      <stop
         offset=".66093999"
         stop-color="#68b723"
         id="stop26" />
      <stop
         offset="1"
         stop-color="#1d7e0d"
         id="stop28" />
    </linearGradient>
    <linearGradient
       id="a"
       gradientTransform="matrix(0.59435835,0,0,0.59991399,-19.26472,-0.0325514)"
       gradientUnits="userSpaceOnUse"
       x1="25.132275"
       x2="25.132275"
       y1="15.499894"
       y2="48.395687">
      <stop
         offset="0"
         stop-color="#fafafa"
         id="stop2" />
      <stop
         offset="1"
         stop-color="#e2e1de"
         id="stop4" />
    </linearGradient>
    <linearGradient
       id="f"
       gradientUnits="userSpaceOnUse"
       x1="11.001243"
       x2="11.001243"
       xlink:href="#c"
       y1="2.2688611"
       y2="19.728327"
       gradientTransform="matrix(0.7677984,0,0,1.0267921,4.1154107,18.507334)" />
    <linearGradient
       id="c">
      <stop
         offset="0"
         stop-color="#fff"
         id="stop8" />
      <stop
         offset="0.5"
         stop-color="#fff"
         stop-opacity=".235294"
         id="stop10" />
      <stop
         offset=".95056331"
         stop-color="#fff"
         stop-opacity=".156863"
         id="stop12" />
      <stop
         offset="1"
         stop-color="#fff"
         stop-opacity=".392157"
         id="stop14" />
    </linearGradient>
    <linearGradient
       inkscape:collect="always"
       xlink:href="#c"
       id="linearGradient896"
       x1="7"
       y1="2"
       x2="7"
       y2="9"
       gradientUnits="userSpaceOnUse"
       gradientTransform="matrix(0.98703551,0,0,0.88413271,0.09322256,-1.3509461)" />
    <linearGradient
       inkscape:collect="always"
       xlink:href="#e"
       id="linearGradient844"
       x1="7"
       y1="-4"
       x2="7"
       y2="17"
       gradientUnits="userSpaceOnUse"
       gradientTransform="matrix(0.94102962,0,0,1.0270126,0.4612697,-2.5603809)" />
  </defs>
  <sodipodi:namedview
     pagecolor="#ffffff"
     bordercolor="#666666"
     borderopacity="1"
     objecttolerance="10"
     gridtolerance="10"
     guidetolerance="10"
     inkscape:pageopacity="0"
     inkscape:pageshadow="2"
     inkscape:window-width="1366"
     inkscape:window-height="706"
     id="namedview8"
     showgrid="true"
     inkscape:snap-global="true"
     inkscape:zoom="22.627417"
     inkscape:cx="7.8872443"
     inkscape:cy="6.4501252"
     inkscape:window-x="0"
     inkscape:window-y="0"
     inkscape:window-maximized="1"
     inkscape:current-layer="svg6">
    <inkscape:grid
       type="xygrid"
       id="grid846" />
  </sodipodi:namedview>
  <g
     id="g909"
     transform="translate(0,1.9999995)">
    <rect
       style="fill:url(#a);stroke-width:1.33332992"
       height="10"
       rx="0.42372692"
       ry="0.4914782"
       width="14"
       x="1"
       y="3"
       id="rect32" />
    <path
       style="opacity:0.32000002;fill:#030303;fill-opacity:1"
       d="M 0.49804688 0.001953125 C 0.22174542 0.001568725 -0.002337545 0.22565163 -0.001953125 0.50195312 L 0 15.5 C -0.00038442363 15.776301 0.22369855 16.000384 0.5 16 L 15.5 16 C 15.776301 16.000384 16.000384 15.776301 16 15.5 L 15.998047 5 L 16 5 L 16 4 L 15.998047 4 L 15.998047 0.50195312 C 15.998431 0.22565163 15.774348 0.001568725 15.498047 0.001953125 L 0.49804688 0.001953125 z M 0.99609375 1 L 15 1 L 15 4 L 10.998047 4 L 10.998047 1.0019531 L 9.9980469 1.0019531 L 9.9980469 4 L 5.9980469 4 L 5.9980469 1.0019531 L 4.9980469 1.0019531 L 4.9980469 4 L 0.99609375 4 L 0.99609375 1 z M 0.99609375 5 L 5 5 L 5 7 L 1 7 L 1 8 L 5 8 L 5 11 L 1 11 L 1 12 L 5 12 L 5 15 L 6 15 L 6 12 L 10 12 L 10 15 L 11 15 L 11 12 L 15 12 L 15 11 L 11 11 L 11 8 L 15 8 L 15 11 L 15.001953 15.001953 L 0.99804688 15.001953 L 0.99609375 5 z M 6 5 L 10 5 L 10 7 L 6 7 L 6 5 z M 11 5 L 15 5 L 15 7 L 11 7 L 11 5 z M 6 8 L 10 8 L 10 11 L 6 11 L 6 8 z "
       transform="translate(0,-1.9999995)"
       id="path4" />
  </g>
  <path
     inkscape:connector-curvature="0"
     style="fill:#fcaf3e;fill-opacity:1"
     d="M 1,6.9999995 H 15 V 12 H 1 Z"
     id="path82"
     sodipodi:nodetypes="ccccc" />
  <path
     inkscape:connector-curvature="0"
     style="fill:#ce5c00"
     d="m 1,6.9999995 c -0.554,0 -1,0.446 -1,1 V 11 c 0,0.554 0.446,1 1,1 h 14 c 0.554,0 1,-0.446 1,-1 V 7.9999995 c 0,-0.554 -0.446,-1 -1,-1 z m 0,1 H 15 V 11 H 1 Z"
     id="path90"
     sodipodi:nodetypes="sssssssssccccc" />
  <rect
     style="opacity:1;fill:#ce5c00;fill-opacity:1;stroke:none;stroke-width:1;stroke-miterlimit:4;stroke-dasharray:none;stroke-dashoffset:0;stroke-opacity:0.49019608"
     id="rect863"
     width="1"
     height="3"
     x="5"
     y="7.9999995" />
  <rect
     y="7.9999995"
     x="10"
     height="3"
     width="1"
     id="rect865"
     style="opacity:1;fill:#ce5c00;fill-opacity:1;stroke:none;stroke-width:1;stroke-miterlimit:4;stroke-dasharray:none;stroke-dashoffset:0;stroke-opacity:0.49019608" />
  <path
     inkscape:connector-curvature="0"
     id="path862"
     d="M 0.5,4.8326996e-7 A 0.49930579,0.49930579 0 0 0 0,0.50000048 V 4.0000005 H 0.99804688 V 0.99804738 H 15.001953 V 4.0000005 H 16 V 0.50000048 A 0.49930579,0.49930579 0 0 0 15.5,4.8326995e-7 Z M 5,1.0000005 v 2 H 1 v 1 H 5 6 9.9999995 11 15 v -1 h -4 v -2 H 9.9999995 v 2 H 6 v -2 z"
     style="opacity:0.4;fill:#126400;fill-opacity:1" />
  <path
     sodipodi:nodetypes="ccccc"
     inkscape:connector-curvature="0"
     style="fill:url(#linearGradient844);fill-opacity:1;stroke-width:0.98308158"
     id="path2"
     d="M 0.50129612,0.52065718 H 15.517744 V 3.6016955 H 0.50129612 Z" />
  <path
     sodipodi:nodetypes="ccccccccc"
     inkscape:connector-curvature="0"
     id="rect885"
     d="m 0.50129512,0.52065718 1e-6,3.08103832 0.50944998,-0.00781 -0.010746,-2.593885 H 15 v 2.6016971 h 0.517738 l 6e-6,-3.08103832 z"
     style="opacity:1;fill:url(#linearGradient896);fill-opacity:1;stroke:none;stroke-width:0.93416828;stroke-linecap:round;stroke-linejoin:round;stroke-miterlimit:4;stroke-dasharray:none;stroke-dashoffset:0;stroke-opacity:1" />
  <rect
     y="0.49417874"
     x="5"
     height="3.0743246"
     width="1"
     id="rect898"
     style="opacity:0.4;fill:#126400;fill-opacity:1;stroke:none;stroke-width:1.09305108;stroke-linecap:round;stroke-linejoin:round;stroke-miterlimit:4;stroke-dasharray:none;stroke-dashoffset:0;stroke-opacity:1" />
  <rect
     y="0.49417874"
     x="10"
     height="3.1029625"
     width="1"
     id="rect900"
     style="opacity:0.4;fill:#126400;fill-opacity:1;stroke:none;stroke-width:1.09305108;stroke-linecap:round;stroke-linejoin:round;stroke-miterlimit:4;stroke-dasharray:none;stroke-dashoffset:0;stroke-opacity:1" />
</svg>
